media/img/consult-talent.svg

<svg width="75" height="75" viewBox="0 0 75 75" fill="none" xmlns="http://www.w3.org/2000/svg">
<path d="M46.985 20.6317L41.9023 6.21591C41.8016 5.94588 41.6124 5.71288 41.366 5.53682C41.0541 5.31393 40.6507 5.18229 40.2195 5.18229C39.4486 5.18229 38.7649 5.60463 38.5368 6.21591L33.1033 20.6317C33.0505 20.7773 33.0329 20.9084 33.0329 21.054H47.0547C47.0554 20.9084 47.0378 20.7773 46.985 20.6317Z" fill="#595A44"/>
<path d="M35.478 73.5215C36.7071 74.3997 38.3043 74.9305 40.0442 74.9305C43.9173 74.9305 47.0547 72.3239 47.0547 69.1061V64.7375H33.0329V69.1061C33.0333 70.8718 33.9835 72.4535 35.478 73.5215Z" fill="#595A44"/>
<path d="M33.0339 23.9655H47.0558V61.8264H33.0339V23.9655Z" fill="#595A44"/>
<path d="M12.8074 32.6154H25.1992C24.7437 27.9995 24.06 24.0826 23.2009 21.345C25.0414 18.2582 26.0228 14.8216 26.0228 11.3701V10.846C26.0228 9.28764 25.4617 7.97729 24.1471 6.87066C22.815 5.77853 21.0625 5.16663 19.1869 5.16663C15.3307 5.16663 12.001 7.6275 12.001 10.8454V11.3695C12.001 14.8208 12.9825 18.2574 14.8229 21.3444C13.9639 24.082 13.2629 28.0142 12.8074 32.6154Z" fill="#595A44"/>
<path d="M25.8117 45.7492C25.8117 42.1962 25.6892 38.7448 25.4611 35.5416L12.5617 35.541C12.3336 38.7448 12.211 42.1955 12.211 45.7486C12.211 52.5927 12.7018 74.9303 19.0118 74.9303C25.3211 74.9309 25.8117 52.5938 25.8117 45.7492Z" fill="#595A44"/>
<path d="M67.807 46.9593C67.807 43.5812 67.6845 40.334 67.474 37.3197H54.557C54.3464 40.334 54.2239 43.5812 54.2239 46.9593C54.2239 53.5268 54.7147 74.9318 61.0247 74.9318C67.3333 74.9318 67.807 53.5261 67.807 46.9593Z" fill="#595A44"/>
<path d="M52.6111 17.6599C52.6111 19.7807 53.7624 21.665 55.557 22.9475C55.9434 23.2236 56.3596 23.4719 56.8005 23.6886C55.9415 26.3098 55.2579 30.0232 54.8199 34.3917H67.2117C66.7738 30.0379 66.1077 26.3392 65.2488 23.7326C67.8074 22.524 69.5429 20.252 69.5429 17.646C69.5429 14.2679 63.8646 7.20494 62.6901 5.79282C62.5961 5.67968 62.4788 5.57352 62.345 5.47793C61.7554 5.05655 60.8472 4.8406 60.2188 5.13766C59.4303 5.48688 59.2373 6.36082 59.5704 7.0453C59.5704 7.07455 59.9034 9.33128 53.4357 15.0687C52.507 15.8988 52.5591 16.9178 52.5943 17.4572L52.5936 17.6601L52.6111 17.6599Z" fill="#595A44"/>
<path d="M5.00098 6.36983V5.8457L12.001 10.8457V11.3698L5.00098 6.36983Z" fill="#595A44"/>
<path d="M5.00098 5.84477C5.00098 2.62689 8.33066 0.166016 12.1869 0.166016L19.1869 5.16602C15.3307 5.16602 12.001 7.62689 12.001 10.8448L5.00098 5.84477Z" fill="#595A44"/>
<path d="M7.82288 16.344C5.98247 13.257 5.00098 9.82042 5.00098 6.36914L12.001 11.3691C12.001 14.8204 12.9825 18.257 14.8229 21.344L7.82288 16.344Z" fill="#595A44"/>
<path d="M12.1865 0.166016C14.0622 0.166016 15.8146 0.777919 17.1468 1.87005L23.3826 6.32423C23.65 6.48986 23.9053 6.67206 24.1468 6.87005L23.3826 6.32423C22.1752 5.57617 20.7221 5.16602 19.1865 5.16602L12.1865 0.166016Z" fill="#595A44"/>
<path d="M17.1475 1.87109C18.462 2.97773 19.0232 4.28808 19.0232 5.84644L26.0232 10.8464C26.0232 9.28808 25.462 7.97773 24.1475 6.87109L17.1475 1.87109Z" fill="#595A44"/>
<path d="M5.80762 27.6148C6.26308 23.0135 6.96412 19.0814 7.8231 16.3438L14.8231 21.3438C13.9641 24.0814 13.2631 28.0135 12.8076 32.6148L5.80762 27.6148Z" fill="#595A44"/>
<path d="M19.0225 5.8457V6.36983L26.0225 11.3698V10.8457L19.0225 5.8457Z" fill="#595A44"/>
<path d="M19.0221 6.37109C19.0221 9.82253 18.0407 13.2591 16.2002 16.346L23.2002 21.346C25.0407 18.2591 26.0221 14.8225 26.0221 11.3711L19.0221 6.37109Z" fill="#595A44"/>
<path d="M5.21094 40.7487C5.21094 37.1955 5.33345 33.7448 5.56158 30.541L12.5616 35.541C12.3335 38.7449 12.2109 42.1955 12.2109 45.7487L5.21094 40.7487Z" fill="#595A44"/>
<path d="M18.1994 27.6152H5.80762L12.8076 32.6152H25.1994L18.1994 27.6152Z" fill="#595A44"/>
<path d="M31.5361 1.21526C31.7643 0.603982 32.4479 0.181641 33.2189 0.181641L40.2189 5.18164C39.4479 5.18164 38.7643 5.60398 38.5361 6.21526L31.5361 1.21526Z" fill="#595A44"/>
<path d="M16.2002 16.3457C17.0593 19.0834 17.7429 23.0002 18.1985 27.6161L25.1985 32.6161C24.7429 28.0002 24.0593 24.0834 23.2002 21.3457L16.2002 16.3457Z" fill="#595A44"/>
<path d="M5.56152 30.541L18.4609 30.5416L25.4609 35.5416L12.5615 35.541L5.56152 30.541Z" fill="#595A44"/>
<path d="M33.2197 0.181641C33.6509 0.181641 34.0543 0.313277 34.3662 0.536167L41.3655 5.53571C41.0537 5.3131 40.6506 5.18164 40.2197 5.18164L33.2197 0.181641Z" fill="#595A44"/>
<path d="M26.1025 15.6326L31.536 1.2168L38.536 6.2168L33.1025 20.6326L26.1025 15.6326Z" fill="#595A44"/>
<path d="M34.3662 0.537109C34.6126 0.713171 34.8018 0.946171 34.9025 1.2162L41.9025 6.2162C41.8018 5.94617 41.6126 5.71317 41.3662 5.53711L34.3662 0.537109Z" fill="#595A44"/>
<path d="M26.0322 16.0532C26.0322 15.9075 26.0498 15.7765 26.1026 15.6309L33.1026 20.6309C33.0498 20.7765 33.0322 20.9075 33.0322 21.0532L26.0322 16.0532Z" fill="#595A44"/>
<path d="M34.9023 1.2168L39.985 15.6326L46.985 20.6326L41.9023 6.2168L34.9023 1.2168Z" fill="#595A44"/>
<path d="M18.4609 30.541C18.6891 33.7442 18.8116 37.1957 18.8116 40.7487L25.8116 45.7487C25.8116 42.1957 25.6891 38.7442 25.4609 35.541L18.4609 30.541Z" fill="#595A44"/>
<path d="M40.054 16.0547H26.0322L33.0322 21.0547H47.054L40.054 16.0547Z" fill="#595A44"/>
<path d="M40.056 18.9648H26.0342L33.0342 23.9648H47.056L40.056 18.9648Z" fill="#595A44"/>
<path d="M12.0117 69.9297C5.70169 69.9297 5.21094 47.5921 5.21094 40.748L12.2109 45.748C12.2109 51.3 12.5339 67.0477 16.0243 72.7958L19.0117 74.9297C17.8204 74.9297 16.8366 74.1335 16.0243 72.7958L12.0117 69.9297Z" fill="#595A44"/>
<path d="M39.9854 15.6309C40.0382 15.7765 40.0558 15.9075 40.0551 16.0532L47.0551 21.0532C47.0558 20.9075 47.0382 20.7765 46.9854 20.6309L39.9854 15.6309Z" fill="#595A44"/>
<path d="M26.0342 18.9648V56.8258L33.0342 61.8258V23.9648L26.0342 18.9648Z" fill="#595A44"/>
<path d="M52.5701 2.04435C52.237 1.35987 52.43 0.485934 53.2185 0.136719L60.2185 5.13672C59.43 5.48593 59.237 6.35987 59.5701 7.04435L52.5701 2.04435Z" fill="#595A44"/>
<path d="M46.4355 10.0683C52.9033 4.3309 52.5702 2.07418 52.5702 2.04492L59.5702 7.04492C59.5702 7.07418 59.9033 9.3309 53.4355 15.0683L46.4355 10.0683Z" fill="#595A44"/>
<path d="M45.5943 12.4568C45.5591 11.9175 45.507 10.8984 46.4357 10.0684L53.4357 15.0684C52.507 15.8984 52.5591 16.9175 52.5943 17.4568L45.5943 12.4568Z" fill="#595A44"/>
<path d="M53.2188 0.137665C53.8471 -0.159405 54.7553 0.0565514 55.3449 0.47793L62.3441 5.47733C61.7544 5.05635 60.8468 4.84074 60.2188 5.13766L53.2188 0.137665Z" fill="#595A44"/>
<path d="M45.5928 12.66L45.5935 12.457L52.5935 17.457L52.5928 17.66L45.5928 12.66Z" fill="#595A44"/>
<path d="M45.6103 12.6602L45.5928 12.6604L52.5928 17.6604L52.6103 17.6602L45.6103 12.6602Z" fill="#595A44"/>
<path d="M18.8116 40.75C18.8116 47.5945 18.321 69.9316 12.0117 69.931L19.0117 74.931C25.321 74.9316 25.8116 52.5945 25.8116 45.75L18.8116 40.75Z" fill="#595A44"/>
<path d="M55.3447 0.478516C55.4785 0.574104 55.5959 0.680263 55.6898 0.793403L62.6898 5.7934C62.5959 5.68026 62.4785 5.5741 62.3447 5.47852L55.3447 0.478516Z" fill="#595A44"/>
<path d="M48.5562 17.9478C46.7616 16.6653 45.6104 14.781 45.6104 12.6602L52.6104 17.6602C52.6104 19.781 53.7616 21.6653 55.5562 22.9478L48.5562 17.9478Z" fill="#595A44"/>
<path d="M49.8011 18.6883C49.3615 18.4723 48.9465 18.2249 48.5611 17.9497L55.5576 22.9473C55.944 23.2234 56.3602 23.4716 56.8011 23.6883L49.8011 18.6883Z" fill="#595A44"/>
<path d="M55.6904 0.792969C56.8649 2.20509 62.5432 9.26803 62.5432 12.6461L69.5432 17.6461C69.5432 14.268 63.8649 7.20509 62.6904 5.79297L55.6904 0.792969Z" fill="#595A44"/>
<path d="M47.8193 29.3926C48.2573 25.0241 48.941 21.3107 49.7999 18.6895L56.7999 23.6895C55.941 26.3107 55.2573 30.0241 54.8193 34.3926L47.8193 29.3926Z" fill="#595A44"/>
<path d="M40.0557 56.8258V18.9648L47.0557 23.9648V61.8258L40.0557 56.8258Z" fill="#595A44"/>
<path d="M26.0322 64.1068V59.7383L33.0322 64.7383V69.1068L26.0322 64.1068Z" fill="#595A44"/>
<path d="M62.5432 12.6465C62.5432 15.2525 60.8076 17.5245 58.249 18.7331L65.249 23.7331C67.8076 22.5245 69.5432 20.2525 69.5432 17.6465L62.5432 12.6465Z" fill="#595A44"/>
<path d="M26.0342 56.8262H40.056L47.056 61.8262H33.0342L26.0342 56.8262Z" fill="#595A44"/>
<path d="M47.2236 41.9599C47.2236 38.5818 47.3461 35.3346 47.5567 32.3203L54.5567 37.3203C54.3461 40.3346 54.2236 43.5818 54.2236 46.9599L47.2236 41.9599Z" fill="#595A44"/>
<path d="M28.4774 68.5209C26.9828 67.4529 26.0326 65.8712 26.0322 64.1055L33.0322 69.1055C33.0326 70.8712 33.9828 72.4529 35.4774 73.5209L28.4774 68.5209Z" fill="#595A44"/>
<path d="M60.2111 29.3926H47.8193L54.8193 34.3926H67.2111L60.2111 29.3926Z" fill="#595A44"/>
<path d="M26.0322 59.7383H40.054L47.054 64.7383H33.0322L26.0322 59.7383Z" fill="#595A44"/>
<path d="M58.249 18.7324C59.108 21.339 59.7741 25.0377 60.212 29.3916L67.212 34.3916C66.7741 30.0377 66.108 26.339 65.249 23.7324L58.249 18.7324Z" fill="#595A44"/>
<path d="M47.5566 32.3203H60.4737L67.4737 37.3203H54.5566L47.5566 32.3203Z" fill="#595A44"/>
<path d="M33.0437 69.9306C31.3048 69.9306 29.7084 69.4004 28.4797 68.523L35.4775 73.5215C36.7066 74.3997 38.3038 74.9306 40.0437 74.9306L33.0437 69.9306Z" fill="#595A44"/>
<path d="M40.0547 59.7383V64.1068L47.0547 69.1068V64.7383L40.0547 59.7383Z" fill="#595A44"/>
<path d="M40.0545 64.1055C40.0545 67.3233 36.9171 69.9299 33.0439 69.9299L40.0439 74.9299C43.9171 74.9299 47.0545 72.3233 47.0545 69.1055L40.0545 64.1055Z" fill="#595A44"/>
<path d="M60.4736 32.3203C60.6842 35.3346 60.8067 38.5818 60.8067 41.9599L67.8067 46.9599C67.8067 43.5818 67.6842 40.3346 67.4736 37.3203L60.4736 32.3203Z" fill="#595A44"/>
<path d="M54.0244 69.9315C47.7144 69.9315 47.2236 48.5264 47.2236 41.959L54.2236 46.959C54.2236 52.236 54.5405 67.0927 57.9385 72.7273L61.0244 74.9315C59.7846 74.9315 58.7694 74.1051 57.9385 72.7273L54.0244 69.9315Z" fill="#595A44"/>
<path d="M60.8067 41.959C60.8067 48.5258 60.333 69.9315 54.0244 69.9315L61.0244 74.9315C67.333 74.9315 67.8067 53.5258 67.8067 46.959L60.8067 41.959Z" fill="#595A44"/>
<g filter="url(#filter0_d_1045_15293)">
<path d="M39.9843 15.631L34.9016 1.21526C34.6735 0.603373 33.9906 0.181641 33.2189 0.181641C32.4479 0.181641 31.7642 0.603982 31.5361 1.21526L26.1026 15.631C26.0498 15.7767 26.0322 15.9077 26.0322 16.0534H40.054C40.0548 15.9077 40.0372 15.7767 39.9843 15.631H39.9843Z" fill="#EBEBEA"/>
<path d="M33.0435 69.9313C36.9166 69.9313 40.054 67.3247 40.054 64.1068V59.7383H26.0322V64.1068C26.033 67.3247 29.188 69.9313 33.0435 69.9313Z" fill="#EBEBEA"/>
<path d="M26.0332 18.9648H40.055V56.8258H26.0332V18.9648Z" fill="#EBEBEA"/>
<path d="M5.80642 27.6148H18.1982C17.7427 22.9989 17.059 19.082 16.2 16.3444C18.0404 13.2576 19.0219 9.82095 19.0219 6.36952V5.84539C19.0219 4.28703 18.4607 2.97668 17.1462 1.87005C15.814 0.777919 14.0616 0.166016 12.1859 0.166016C8.32968 0.166016 5 2.62689 5 5.84477V6.36889C5 9.82017 5.9815 13.2568 7.8219 16.3438C6.96292 19.0814 6.26164 23.0135 5.80618 27.6148H5.80642Z" fill="#EBEBEA"/>
<path d="M18.8106 40.7493C18.8106 37.1963 18.6881 33.7448 18.46 30.5416L5.5606 30.541C5.33247 33.7448 5.20996 37.1955 5.20996 40.7487C5.20996 47.5927 5.70071 69.9303 12.0107 69.9303C18.3201 69.9309 18.8107 47.5932 18.8107 40.7487L18.8106 40.7493Z" fill="#EBEBEA"/>
<path d="M60.8067 41.9599C60.8067 38.5818 60.6842 35.3346 60.4737 32.3203H47.5567C47.3461 35.3346 47.2236 38.5818 47.2236 41.9599C47.2236 48.5273 47.7144 69.9324 54.0244 69.9324C60.333 69.9324 60.8068 48.5267 60.8068 41.9599H60.8067Z" fill="#EBEBEA"/>
<path d="M45.6101 12.6599C45.6101 15.2373 47.3105 17.4654 49.7995 18.6886C48.9405 21.3098 48.2569 25.0232 47.8189 29.3917H60.2107C59.7728 25.0379 59.1067 21.3392 58.2478 18.7326C60.8064 17.524 62.5419 15.252 62.5419 12.646C62.5419 9.26788 56.8636 2.20494 55.6891 0.792817C55.1808 0.180929 53.9888 -0.226794 53.2178 0.137665C52.4293 0.48688 52.2363 1.36082 52.5694 2.0453C52.5694 2.07455 52.9024 4.33128 46.4347 10.0687C45.506 10.8988 45.5581 11.9178 45.5933 12.4572L45.5926 12.6601L45.6101 12.6599Z" fill="#EBEBEA"/>
</g>
<defs>
<filter id="filter0_d_1045_15293" x="-21" y="-22" width="109.542" height="121.932" filterUnits="userSpaceOnUse" color-interpolation-filters="sRGB">
<feFlood flood-opacity="0" result="BackgroundImageFix"/>
<feColorMatrix in="SourceAlpha" type="matrix" values="0 0 0 0 0 0 0 0 0 0 0 0 0 0 0 0 0 0 127 0" result="hardAlpha"/>
<feOffset dy="4"/>
<feGaussianBlur stdDeviation="13"/>
<feComposite in2="hardAlpha" operator="out"/>
<feColorMatrix type="matrix" values="0 0 0 0 0 0 0 0 0 0 0 0 0 0 0 0 0 0 0.1 0"/>
<feBlend mode="normal" in2="BackgroundImageFix" result="effect1_dropShadow_1045_15293"/>
<feBlend mode="normal" in="SourceGraphic" in2="effect1_dropShadow_1045_15293" result="shape"/>
</filter>
</defs>
</svg>

<svg width="75" height="75" viewBox="0 0 75 75" fill="none" xmlns="http://www.w3.org/2000/svg"><path d="M46.985 20.632L41.902 6.216c-.1-.27-.29-.503-.536-.68a1.98 1.98 0 00-1.147-.354c-.77 0-1.454.423-1.682 1.034l-5.434 14.416c-.053.145-.07.276-.07.422h14.022c0-.146-.017-.277-.07-.422zm-11.507 52.89c1.23.878 2.826 1.408 4.566 1.408 3.873 0 7.01-2.606 7.01-5.824v-4.368h-14.02v4.368c0 1.766.95 3.348 2.445 4.416zm-2.444-49.557h14.022v37.861H33.034v-37.86zm-20.227 8.65H25.2c-.455-4.616-1.139-8.532-1.998-11.27 1.84-3.087 2.822-6.523 2.822-9.975v-.524c0-1.558-.561-2.869-1.876-3.975-1.332-1.092-3.084-1.704-4.96-1.704-3.856 0-7.186 2.46-7.186 5.678v.524c0 3.452.982 6.888 2.822 9.975-.86 2.738-1.56 6.67-2.016 11.271zM25.812 45.75c0-3.554-.123-7.005-.35-10.208l-12.9-.001a144.937 144.937 0 00-.351 10.208c0 6.844.49 29.181 6.8 29.181s6.8-22.336 6.8-29.18zm41.995 1.21c0-3.379-.123-6.626-.333-9.64H54.557c-.21 3.014-.333 6.261-.333 9.64 0 6.567.49 27.972 6.8 27.972s6.783-21.406 6.783-27.973zm-15.196-29.3c0 2.12 1.151 4.005 2.946 5.288.386.276.803.524 1.243.74-.858 2.622-1.542 6.335-1.98 10.704h12.392c-.438-4.354-1.104-8.053-1.963-10.66 2.558-1.208 4.294-3.48 4.294-6.086 0-3.378-5.678-10.441-6.853-11.853a1.834 1.834 0 00-.345-.315c-.59-.421-1.498-.637-2.126-.34-.789.349-.982 1.223-.649 1.907 0 .03.333 2.286-6.134 8.024-.929.83-.877 1.849-.842 2.388v.203h.017zM5.001 6.37v-.524l7 5v.524l-7-5z" fill="#595A44"/><path d="M5.001 5.845c0-3.218 3.33-5.679 7.186-5.679l7 5C15.33 5.166 12 7.626 12 10.845l-7-5zm2.822 10.499C5.983 13.257 5 9.82 5 6.369l7 5c0 3.451.982 6.888 2.822 9.975l-7-5z" fill="#595A44"/><path d="M12.187.166c1.875 0 3.628.612 4.96 1.704l6.236 4.454c.267.166.522.348.764.546l-.764-.546c-1.208-.748-2.66-1.158-4.197-1.158l-7-5z" fill="#595A44"/><path d="M17.148 1.871c1.314 1.107 1.875 2.417 1.875 3.975l7 5c0-1.558-.561-2.868-1.875-3.975l-7-5zM5.808 27.615c.455-4.601 1.156-8.534 2.015-11.271l7 5c-.859 2.737-1.56 6.67-2.015 11.27l-7-5z" fill="#595A44"/><path d="M19.023 5.846v.524l7 5v-.524l-7-5zm-.001.525c0 3.452-.981 6.888-2.822 9.975l7 5c1.84-3.087 2.822-6.524 2.822-9.975l-7-5zM5.21 40.749c0-3.553.123-7.004.352-10.208l7 5a144.937 144.937 0 00-.351 10.208l-7-5zM18.2 27.615H5.807l7 5h12.391l-7-5zm13.336-26.4c.228-.611.912-1.033 1.683-1.033l7 5c-.771 0-1.455.422-1.683 1.033l-7-5z" fill="#595A44"/><path d="M16.2 16.346c.86 2.737 1.543 6.654 1.998 11.27l7 5C24.744 28 24.06 24.083 23.2 21.346l-7-5zM5.562 30.541H18.46l7 5h-12.9l-7-5zM33.22.182c.43 0 .834.131 1.146.354l7 5a1.98 1.98 0 00-1.146-.354l-7-5zm-7.118 15.451l5.434-14.416 7 5-5.434 14.416-7-5z" fill="#595A44"/><path d="M34.366.537c.247.176.436.41.537.68l7 5a1.48 1.48 0 00-.537-.68l-7-5zm-8.334 15.516c0-.146.018-.277.07-.422l7 5c-.052.145-.07.276-.07.422l-7-5zm8.87-14.836l5.083 14.416 7 5-5.083-14.416-7-5zM18.46 30.541a143.7 143.7 0 01.352 10.208l7 5c0-3.553-.123-7.005-.351-10.208l-7-5z" fill="#595A44"/><path d="M40.054 16.055H26.032l7 5h14.022l-7-5z" fill="#595A44"/><path d="M40.056 18.965H26.034l7 5h14.022l-7-5zM12.012 69.93c-6.31 0-6.801-22.338-6.801-29.182l7 5c0 5.552.323 21.3 3.813 27.048l2.988 2.134c-1.192 0-2.175-.797-2.988-2.134l-4.012-2.866zm27.973-54.3c.053.146.07.277.07.423l7 5c0-.146-.017-.277-.07-.422l-7-5zm-13.951 3.335v37.86l7 5v-37.86l-7-5zM52.57 2.044c-.333-.684-.14-1.558.648-1.907l7 5c-.788.349-.981 1.223-.648 1.907l-7-5zm-6.135 8.024c6.468-5.737 6.135-7.994 6.135-8.023l7 5c0 .03.333 2.286-6.135 8.023l-7-5z" fill="#595A44"/><path d="M45.594 12.457c-.035-.54-.087-1.559.842-2.389l7 5c-.929.83-.877 1.85-.842 2.389l-7-5zM53.219.138c.628-.297 1.536-.081 2.126.34l7 5c-.59-.422-1.498-.637-2.126-.34l-7-5zM45.593 12.66v-.203l7 5v.203l-7-5z" fill="#595A44"/><path d="M45.61 12.66h-.017l7 5h.017l-7-5zM18.812 40.75c0 6.844-.491 29.182-6.8 29.181l7 5c6.309 0 6.8-22.337 6.8-29.181l-7-5zM55.345.479c.133.095.25.201.345.314l7 5a1.83 1.83 0 00-.345-.314l-7-5z" fill="#595A44"/><path d="M48.556 17.948c-1.794-1.283-2.946-3.167-2.946-5.288l7 5c0 2.121 1.152 4.005 2.946 5.288l-7-5z" fill="#595A44"/><path d="M49.801 18.688a8.849 8.849 0 01-1.24-.738l6.997 4.997c.386.276.802.525 1.243.741l-7-5zM55.69.793c1.175 1.412 6.853 8.475 6.853 11.853l7 5c0-3.378-5.678-10.44-6.853-11.853l-7-5z" fill="#595A44"/><path d="M47.82 29.393c.437-4.369 1.121-8.082 1.98-10.704l7 5c-.859 2.622-1.543 6.335-1.98 10.704l-7-5zm-7.764 27.433V18.965l7 5v37.86l-7-5zm-14.024 7.281v-4.369l7 5v4.369l-7-5zm36.511-51.461c0 2.606-1.735 4.878-4.294 6.087l7 5c2.559-1.209 4.294-3.48 4.294-6.087l-7-5zm-36.509 44.18h14.022l7 5H33.034l-7-5zm21.19-14.866c0-3.378.122-6.625.333-9.64l7 5a139.38 139.38 0 00-.333 9.64l-7-5z" fill="#595A44"/><path d="M28.477 68.52c-1.494-1.067-2.444-2.649-2.445-4.414l7 5c0 1.765.95 3.347 2.445 4.415l-7-5zm31.734-39.127H47.82l7 5h12.392l-7-5zM26.032 59.738h14.022l7 5H33.032l-7-5zm32.217-41.006c.859 2.607 1.525 6.306 1.963 10.66l7 5c-.438-4.354-1.104-8.053-1.963-10.66l-7-5z" fill="#595A44"/><path d="M47.557 32.32h12.917l7 5H54.557l-7-5zM33.044 69.93c-1.74 0-3.336-.53-4.564-1.407l6.997 4.999c1.23.878 2.827 1.409 4.567 1.409l-7-5zm7.011-10.192v4.369l7 5v-4.369l-7-5z" fill="#595A44"/><path d="M40.054 64.106c0 3.217-3.137 5.824-7.01 5.824l7 5c3.873 0 7.01-2.607 7.01-5.825l-7-5zm20.42-31.786c.21 3.015.333 6.262.333 9.64l7 5c0-3.378-.123-6.625-.333-9.64l-7-5zm-6.45 37.611c-6.31 0-6.8-21.405-6.8-27.972l7 5c0 5.277.317 20.134 3.715 25.768l3.085 2.204c-1.24 0-2.255-.826-3.086-2.204l-3.914-2.796z" fill="#595A44"/><path d="M60.807 41.959c0 6.567-.474 27.972-6.783 27.972l7 5c6.309 0 6.783-21.405 6.783-27.972l-7-5z" fill="#595A44"/><g filter="url(#filter0_d_1045_15293)" fill="#EBEBEA"><path d="M39.984 15.631L34.902 1.215C34.673.603 33.99.182 33.219.182s-1.455.422-1.683 1.033l-5.433 14.416a1.18 1.18 0 00-.07.422h14.021a1.18 1.18 0 00-.07-.422zm-6.94 54.3c3.873 0 7.01-2.606 7.01-5.824v-4.369H26.032v4.369c.001 3.218 3.156 5.824 7.012 5.824zm-7.011-50.966h14.022v37.86H26.033v-37.86zm-20.227 8.65h12.392c-.455-4.616-1.139-8.533-1.998-11.27 1.84-3.087 2.822-6.524 2.822-9.975v-.525c0-1.558-.561-2.868-1.876-3.975C15.814.778 14.062.166 12.186.166 8.33.166 5 2.626 5 5.845v.524c0 3.451.981 6.888 2.822 9.975-.86 2.737-1.56 6.67-2.016 11.27zM18.81 40.75c0-3.554-.122-7.005-.35-10.208l-12.9-.001c-.228 3.204-.35 6.655-.35 10.208 0 6.844.49 29.181 6.8 29.181s6.8-22.337 6.8-29.181zm41.997 1.21c0-3.378-.123-6.625-.333-9.64H47.557a139.38 139.38 0 00-.333 9.64c0 6.567.49 27.972 6.8 27.972 6.309 0 6.783-21.405 6.783-27.972zM45.61 12.66c0 2.577 1.7 4.805 4.19 6.029-.86 2.62-1.543 6.334-1.981 10.703H60.21c-.438-4.354-1.104-8.053-1.963-10.66 2.558-1.208 4.294-3.48 4.294-6.086 0-3.378-5.678-10.441-6.853-11.853-.508-.612-1.7-1.02-2.471-.655-.789.349-.982 1.223-.649 1.907 0 .03.333 2.286-6.134 8.024-.929.83-.877 1.849-.842 2.388v.203h.017z"/></g><defs><filter id="filter0_d_1045_15293" x="-21" y="-22" width="109.542" height="121.932" filterUnits="userSpaceOnUse" color-interpolation-filters="sRGB"><feFlood flood-opacity="0" result="BackgroundImageFix"/><feColorMatrix in="SourceAlpha" values="0 0 0 0 0 0 0 0 0 0 0 0 0 0 0 0 0 0 127 0" result="hardAlpha"/><feOffset dy="4"/><feGaussianBlur stdDeviation="13"/><feComposite in2="hardAlpha" operator="out"/><feColorMatrix values="0 0 0 0 0 0 0 0 0 0 0 0 0 0 0 0 0 0 0.1 0"/><feBlend in2="BackgroundImageFix" result="effect1_dropShadow_1045_15293"/><feBlend in="SourceGraphic" in2="effect1_dropShadow_1045_15293" result="shape"/></filter></defs></svg>
